icons/svg/shaders/h_topo_construction.svg

<svg width="8" height="10" version="1.1" viewBox="0 0 8 10" xmlns="http://www.w3.org/2000/svg">
 <path d="m4.4224 7.1875c0.32792 0 0.59375-0.26583 0.59375-0.59375s-0.26583-0.59375-0.59375-0.59375c-0.32791 0-0.59375 0.26583-0.59375 0.59375s0.26584 0.59375 0.59375 0.59375z" fill="#4A4A4A"/>
 <path d="m4.4062 4.0938c0.32792 0 0.59375-0.26583 0.59375-0.59375s-0.26583-0.59375-0.59375-0.59375-0.59375 0.26583-0.59375 0.59375 0.26583 0.59375 0.59375 0.59375z" fill="#4A4A4A"/>
</svg>

<?xml version="1.0" encoding="UTF-8" standalone="no"?>
<svg
   xmlns:dc="http://purl.org/dc/elements/1.1/"
   xmlns:cc="http://creativecommons.org/ns#"
   xmlns:rdf="http://www.w3.org/1999/02/22-rdf-syntax-ns#"
   xmlns:svg="http://www.w3.org/2000/svg"
   xmlns="http://www.w3.org/2000/svg"
   xmlns:sodipodi="http://sodipodi.sourceforge.net/DTD/sodipodi-0.dtd"
   xmlns:inkscape="http://www.inkscape.org/namespaces/inkscape"
   width="8"
   height="10"
   viewBox="0 0 8 10"
   fill="none"
   version="1.1"
   id="svg8"
   sodipodi:docname="h_topo_construction.svg"
   inkscape:version="0.92.5 (2060ec1f9f, 2020-04-08)">
  <metadata
     id="metadata14">
    <rdf:RDF>
      <cc:Work
         rdf:about="">
        <dc:format>image/svg+xml</dc:format>
        <dc:type
           rdf:resource="http://purl.org/dc/dcmitype/StillImage" />
      </cc:Work>
    </rdf:RDF>
  </metadata>
  <defs
     id="defs12" />
  <sodipodi:namedview
     pagecolor="#ffffff"
     bordercolor="#666666"
     borderopacity="1"
     objecttolerance="10"
     gridtolerance="10"
     guidetolerance="10"
     inkscape:pageopacity="0"
     inkscape:pageshadow="2"
     inkscape:window-width="1920"
     inkscape:window-height="1014"
     id="namedview10"
     showgrid="false"
     inkscape:zoom="23.6"
     inkscape:cx="-0.78813559"
     inkscape:cy="5"
     inkscape:window-x="1920"
     inkscape:window-y="0"
     inkscape:window-maximized="1"
     inkscape:current-layer="svg8" />
  <path
     d="M4.42245 7.1875C4.75037 7.1875 5.0162 6.92167 5.0162 6.59375C5.0162 6.26583 4.75037 6 4.42245 6C4.09454 6 3.8287 6.26583 3.8287 6.59375C3.8287 6.92167 4.09454 7.1875 4.42245 7.1875Z"
     fill="#4A4A4A"
     id="path4" />
  <path
     d="M4.40625 4.09375C4.73417 4.09375 5 3.82792 5 3.5C5 3.17208 4.73417 2.90625 4.40625 2.90625C4.07833 2.90625 3.8125 3.17208 3.8125 3.5C3.8125 3.82792 4.07833 4.09375 4.40625 4.09375Z"
     fill="#4A4A4A"
     id="path6" />
</svg>
